Origami/64x64/apps/conky-manager.svg

<svg width="64" height="64" version="1" xmlns="http://www.w3.org/2000/svg">
 <rect x="51" y="13" width="8" height="40" rx="1.333" ry="1.429" style="opacity:.2"/>
 <rect x="29" y="13" width="8" height="40" rx="1.333" ry="1.429" style="opacity:.2"/>
 <rect x="51" y="12" width="8" height="40" rx="1.333" ry="1.429" style="fill:#c2352a"/>
 <rect x="29" y="12" width="8" height="40" rx="1.333" ry="1.429" style="fill:#c2352a"/>
 <rect x="5" y="12" width="8" height="40" rx="1.333" ry="1.429" style="fill:#c2352a"/>
 <path d="M 6.4296876,13 C 5.638259,13 5,13.593365 5,14.332031 l 0,5.335937 C 5,20.406636 5.638259,21 6.4296876,21 L 23.570312,21 C 24.361742,21 25,20.406636 25,19.667968 l 0,-5.335937 C 25,13.593365 24.361742,13 23.570312,13 L 6.4296876,13 Z m 24.5234364,0 a 1.9532883,1.6212212 0 0 0 -1.691406,2.429688 l 6.523438,9.378906 6.523438,9.378906 A 1.9532883,1.6212212 0 0 0 43.910156,35 a 1.9532883,1.6212212 0 0 0 1.78125,-0.8125 l 6.523438,-9.378906 6.523438,-9.378906 A 1.9532883,1.6212212 0 0 0 57.046876,13 L 44,13 30.953124,13 Z M 6.4296876,45 C 5.638259,45 5,45.593364 5,46.332032 l 0,5.335936 C 5,52.406636 5.638259,53 6.4296876,53 L 23.570312,53 C 24.361742,53 25,52.406636 25,51.667968 l 0,-5.335936 C 25,45.593364 24.361742,45 23.570312,45 L 6.4296876,45 Z" style="opacity:.2"/>
 <rect transform="rotate(90)" x="12" y="-25" width="8" height="20" rx="1.333" ry="1.429" style="fill:#d8564d"/>
 <rect transform="rotate(90)" x="44" y="-25" width="8" height="20" rx="1.333" ry="1.429" style="fill:#d8564d"/>
 <path d="m30.952676 11.999999a1.9532883 1.6212212 0 0 0 -1.691154 2.43159l6.525568 9.378081 6.523024 9.37808a1.9532883 1.6212212 0 0 0 1.599608 0.81053 1.9532883 1.6212212 0 0 0 1.782702 -0.81053l6.523028-9.37808 6.523024-9.378081a1.9532883 1.6212212 0 0 0 -1.691152 -2.43159h-13.046054-13.048594z" style="fill:#d8564d"/>
 <path d="m6.4296875 12c-0.7914288 0-1.4296875 0.593365-1.4296875 1.332031v1c0-0.738666 0.6382587-1.332031 1.4296875-1.332031h17.140624c0.79143 0 1.429688 0.593365 1.429688 1.332031v-1c0-0.738666-0.638258-1.332031-1.429688-1.332031h-17.140624zm24.523438 0a1.9532883 1.6212212 0 0 0 -1.853516 2.121094 1.9532883 1.6212212 0 0 1 1.853516 -1.121094h13.046875 13.046875a1.9532883 1.6212212 0 0 1 1.855469 1.123047 1.9532883 1.6212212 0 0 0 -1.855469 -2.123047h-13.046875-13.046875zm-24.523438 32c-0.7914288 0-1.4296875 0.593363-1.4296875 1.332031v1c0-0.738668 0.6382587-1.332031 1.4296875-1.332031h17.140624c0.79143 0 1.429688 0.593363 1.429688 1.332031v-1c0-0.738668-0.638258-1.332031-1.429688-1.332031h-17.140624z" style="fill:#ffffff;opacity:.2"/>
</svg>

<svg xmlns="http://www.w3.org/2000/svg" width="64" height="64" version="1">
 <rect style="opacity:0.2" width="8" height="40" x="51" y="13" rx="1.333" ry="1.429"/>
 <rect style="opacity:0.2" width="8" height="40" x="29" y="13" rx="1.333" ry="1.429"/>
 <rect style="fill:#c2352a" width="8" height="40" x="51" y="12" rx="1.333" ry="1.429"/>
 <rect style="fill:#c2352a" width="8" height="40" x="29" y="12" rx="1.333" ry="1.429"/>
 <rect style="fill:#c2352a" width="8" height="40" x="5" y="12" rx="1.333" ry="1.429"/>
 <path style="opacity:0.2" d="M 6.4296876,13 C 5.638259,13 5,13.593365 5,14.332031 l 0,5.335937 C 5,20.406636 5.638259,21 6.4296876,21 L 23.570312,21 C 24.361742,21 25,20.406636 25,19.667968 l 0,-5.335937 C 25,13.593365 24.361742,13 23.570312,13 L 6.4296876,13 Z m 24.5234364,0 a 1.9532883,1.6212212 0 0 0 -1.691406,2.429688 l 6.523438,9.378906 6.523438,9.378906 A 1.9532883,1.6212212 0 0 0 43.910156,35 a 1.9532883,1.6212212 0 0 0 1.78125,-0.8125 l 6.523438,-9.378906 6.523438,-9.378906 A 1.9532883,1.6212212 0 0 0 57.046876,13 L 44,13 30.953124,13 Z M 6.4296876,45 C 5.638259,45 5,45.593364 5,46.332032 l 0,5.335936 C 5,52.406636 5.638259,53 6.4296876,53 L 23.570312,53 C 24.361742,53 25,52.406636 25,51.667968 l 0,-5.335936 C 25,45.593364 24.361742,45 23.570312,45 L 6.4296876,45 Z"/>
 <rect style="fill:#d8564d" width="8" height="20" x="12" y="-25" rx="1.333" ry="1.429" transform="matrix(0,1,-1,0,0,0)"/>
 <rect style="fill:#d8564d" width="8" height="20" x="44" y="-25" rx="1.333" ry="1.429" transform="matrix(0,1,-1,0,0,0)"/>
 <path style="fill:#d8564d" d="m 30.952676,11.999999 a 1.9532883,1.6212212 0 0 0 -1.691154,2.43159 l 6.525568,9.378081 6.523024,9.37808 a 1.9532883,1.6212212 0 0 0 1.599608,0.81053 1.9532883,1.6212212 0 0 0 1.782702,-0.81053 l 6.523028,-9.37808 6.523024,-9.378081 a 1.9532883,1.6212212 0 0 0 -1.691152,-2.43159 l -13.046054,0 -13.048594,0 z"/>
 <path style="opacity:0.2;fill:#ffffff" d="M 6.4296875 12 C 5.6382587 12 5 12.593365 5 13.332031 L 5 14.332031 C 5 13.593365 5.6382587 13 6.4296875 13 L 23.570312 13 C 24.361742 13 25 13.593365 25 14.332031 L 25 13.332031 C 25 12.593365 24.361742 12 23.570312 12 L 6.4296875 12 z M 30.953125 12 A 1.9532883 1.6212212 0 0 0 29.099609 14.121094 A 1.9532883 1.6212212 0 0 1 30.953125 13 L 44 13 L 57.046875 13 A 1.9532883 1.6212212 0 0 1 58.902344 14.123047 A 1.9532883 1.6212212 0 0 0 57.046875 12 L 44 12 L 30.953125 12 z M 6.4296875 44 C 5.6382587 44 5 44.593363 5 45.332031 L 5 46.332031 C 5 45.593363 5.6382587 45 6.4296875 45 L 23.570312 45 C 24.361742 45 25 45.593363 25 46.332031 L 25 45.332031 C 25 44.593363 24.361742 44 23.570312 44 L 6.4296875 44 z"/>
</svg>
